static/assets/items/silicon.svg

<svg xmlns="http://www.w3.org/2000/svg" viewBox="0 0 32 32"><path d="M0 .5V0h32v32H0V.5M20.5 28q.5 0 .875-.125T22 27.5l.5-.5.5-.5.5-.5.5-.5.5-.5.5-.5.5-.5q.25-.25.375-.625T26 22.5v-1q0-.5.125-.875T26.5 20l.5-.5.5-.5q.25-.25.375-.625T28 17.5v-1-1-1-1-1-1-1q0-.5-.125-.875T27.5 9l-.5-.5-.5-.5-.5-.5-.5-.5-.5-.5-.5-.5-.5-.5-.5-.5-.5-.5q-.25-.25-.625-.375T21.5 4h-7q-.5 0-.875.125T13 4.5l-.5.5-.5.5-.5.5-.5.5-.5.5-.5.5-.5.5-.5.5-.5.5q-.25.25-.375.625T8 10.5v.5l-.375.125Q7.25 11.25 7 11.5l-.5.5-.5.5-.5.5q-.25.25-.375.625T5 14.5v7q0 .5.125.875T5.5 23l.5.5.5.5.5.5.5.5.5.5.5.5.5.5.5.5.5.5q.25.25.625.375T11.5 28h9M8 11.125v-.875 1-.125" fill="none"/><path d="M13 4.5q.25-.25.625-.375T14.5 4H17v.5q0 .5-.5.5t-.5.5v3q0 .5.5.5t.5.5.5.5.5.5.5.5.5.5.5.5.5.5v3q0 .5.5.5t.5.5.5.5.5.5.5.5.5.5.5.5q.5 0 .5-.5v-1-1-1-1-1-1-1-1-1-1q0-.5-.5-.5t-.5-.5-.5-.5-.5-.5-.5-.5-.5-.5-.5-.5-.5-.5V4h1.5q.5 0 .875.125T23 4.5l.5.5.5.5.5.5.5.5.5.5.5.5.5.5.5.5.5.5q.25.25.375.625T28 10.5v7q0 .5-.125.875T27.5 19l-.5.5-.5.5q-.25.25-.375.625L26 21l.0938-.2813.0937-.2812-.0625.1875q-.0625.1875-.0938.4063L26 21.25l.0156-.1094.0157-.1093-.3907.1093Q25.25 21.25 25 21.5l-.5.5-.5.5-.5.5-.5.5q-.25.25-.625.375T21.5 24H19v-.5q0-.5.5-.5t.5-.5v-1-1-1q0-.5-.5-.5t-.5-.5-.5-.5-.5-.5-.5-.5-.5-.5-.5-.5-.5-.5v-1-1-1q0-.5-.5-.5t-.5-.5-.5-.5-.5-.5-.5-.5-.5-.5-.5-.5q-.5 0-.5.5v10q0 .5.5.5t.5.5.5.5.5.5.5.5.5.5.5.5.5.5v.5h-1.5q-.5 0-.875-.125T13 23.5l-.5-.5-.5-.5-.5-.5-.5-.5-.5-.5-.5-.5-.5-.5-.5-.5-.5-.5q-.25-.25-.375-.625T8 17.5v-1-1-1-1-1-1-1q0-.5.125-.875T8.5 9l.5-.5.5-.5.5-.5.5-.5.5-.5.5-.5.5-.5.5-.5.5-.5" fill="#767a84"/><path d="M17 4.5V4h3v.5q0 .5.5.5t.5.5.5.5.5.5.5.5.5.5.5.5.5.5v10q0 .5-.5.5t-.5-.5-.5-.5-.5-.5-.5-.5-.5-.5-.5-.5-.5-.5v-1-1-1q0-.5-.5-.5t-.5-.5-.5-.5-.5-.5-.5-.5-.5-.5-.5-.5-.5-.5v-1-1-1q0-.5.5-.5t.5-.5M12 9.5q0-.5.5-.5t.5.5.5.5.5.5.5.5.5.5.5.5.5.5v3q0 .5.5.5t.5.5.5.5.5.5.5.5.5.5.5.5.5.5v3q0 .5-.5.5t-.5.5v.5h-3v-.5q0-.5-.5-.5t-.5-.5-.5-.5-.5-.5-.5-.5-.5-.5-.5-.5-.5-.5v-1-1-1-1-1-1-1-1-1-1" fill="#8e9097"/><path d="M7 11.5q.25-.25.625-.375L8 11v6.5q0 .5.125.875T8.5 19l.5.5.5.5.5.5.5.5.5.5.5.5.5.5.5.5.5.5q.25.25.625.375T14.5 24h7q.5 0 .875-.125T23 23.5l.5-.5.5-.5.5-.5.5-.5q.25-.25.6406-.3594l.3907-.1093.0156-.1094.0156-.1094-.0313.2188Q26 21.25 26 21.5v.25V21v1.5q0 .5-.125.875T25.5 24l-.5.5-.5.5-.5.5-.5.5-.5.5-.5.5-.5.5q-.25.25-.625.375T20.5 28h-9q-.5 0-.875-.125T10 27.5l-.5-.5-.5-.5-.5-.5-.5-.5-.5-.5-.5-.5-.5-.5-.5-.5-.5-.5q-.25-.25-.375-.625T5 21.5v-1-1-1-1-1-1-1q0-.5.125-.875T5.5 13l.5-.5.5-.5.5-.5m1-.125v-.625 1-.375" fill="#3a3a50"/></svg>

<?xml version="1.0" encoding="UTF-8" standalone="no"?>
<!-- Created with Inkscape (http://www.inkscape.org/) -->

<svg
   xmlns:dc="http://purl.org/dc/elements/1.1/"
   xmlns:cc="http://creativecommons.org/ns#"
   xmlns:rdf="http://www.w3.org/1999/02/22-rdf-syntax-ns#"
   xmlns:svg="http://www.w3.org/2000/svg"
   xmlns="http://www.w3.org/2000/svg"
   xmlns:sodipodi="http://sodipodi.sourceforge.net/DTD/sodipodi-0.dtd"
   xmlns:inkscape="http://www.inkscape.org/namespaces/inkscape"
   version="1.1"
   id="svg9775"
   width="32"
   height="32"
   viewBox="0 0 32 32"
   sodipodi:docname="silicon.svg"
   inkscape:version="0.92.5 (2060ec1f9f, 2020-04-08)">
  <metadata
     id="metadata9781">
    <rdf:RDF>
      <cc:Work
         rdf:about="">
        <dc:format>image/svg+xml</dc:format>
        <dc:type
           rdf:resource="http://purl.org/dc/dcmitype/StillImage" />
        <dc:title></dc:title>
      </cc:Work>
    </rdf:RDF>
  </metadata>
  <defs
     id="defs9779" />
  <sodipodi:namedview
     pagecolor="#ffffff"
     bordercolor="#666666"
     borderopacity="1"
     objecttolerance="10"
     gridtolerance="10"
     guidetolerance="10"
     inkscape:pageopacity="0"
     inkscape:pageshadow="2"
     inkscape:window-width="1366"
     inkscape:window-height="705"
     id="namedview9777"
     showgrid="false"
     inkscape:zoom="7.375"
     inkscape:cx="16"
     inkscape:cy="16"
     inkscape:window-x="-8"
     inkscape:window-y="-8"
     inkscape:window-maximized="1"
     inkscape:current-layer="svg9775" />
  <g
     id="g10338">
    <path
       style="fill:#000000;fill-opacity:0"
       d="M 0,0.5 V 0 H 0.5 1 1.5 2 2.5 3 3.5 4 4.5 5 5.5 6 6.5 7 7.5 8 8.5 9 9.5 10 10.5 11 11.5 12 12.5 13 13.5 14 14.5 15 15.5 16 16.5 17 17.5 18 18.5 19 19.5 20 20.5 21 21.5 22 22.5 23 23.5 24 24.5 25 25.5 26 26.5 27 27.5 28 28.5 29 29.5 30 30.5 31 31.5 32 V 0.5 1 1.5 2 2.5 3 3.5 4 4.5 5 5.5 6 6.5 7 7.5 8 8.5 9 9.5 10 10.5 11 11.5 12 12.5 13 13.5 14 14.5 15 15.5 16 16.5 17 17.5 18 18.5 19 19.5 20 20.5 21 21.5 22 22.5 23 23.5 24 24.5 25 25.5 26 26.5 27 27.5 28 28.5 29 29.5 30 30.5 31 31.5 32 H 31.5 31 30.5 30 29.5 29 28.5 28 27.5 27 26.5 26 25.5 25 24.5 24 23.5 23 22.5 22 21.5 21 20.5 20 19.5 19 18.5 18 17.5 17 16.5 16 15.5 15 14.5 14 13.5 13 12.5 12 11.5 11 10.5 10 9.5 9 8.5 8 7.5 7 6.5 6 5.5 5 4.5 4 3.5 3 2.5 2 1.5 1 0.5 0 V 31.5 31 30.5 30 29.5 29 28.5 28 27.5 27 26.5 26 25.5 25 24.5 24 23.5 23 22.5 22 21.5 21 20.5 20 19.5 19 18.5 18 17.5 17 16.5 16 15.5 15 14.5 14 13.5 13 12.5 12 11.5 11 10.5 10 9.5 9 8.5 8 7.5 7 6.5 6 5.5 5 4.5 4 3.5 3 2.5 2 1.5 1 0.5 M 20.5,28 Q 21,28 21.375,27.875 21.75,27.75 22,27.5 22.25,27.25 22.5,27 22.75,26.75 23,26.5 23.25,26.25 23.5,26 23.75,25.75 24,25.5 24.25,25.25 24.5,25 24.75,24.75 25,24.5 25.25,24.25 25.5,24 25.75,23.75 25.875,23.375 26,23 26,22.5 26,22 26,21.5 26,21 26.125,20.625 26.25,20.25 26.5,20 26.75,19.75 27,19.5 27.25,19.25 27.5,19 27.75,18.75 27.875,18.375 28,18 28,17.5 q 0,-0.5 0,-1 0,-0.5 0,-1 0,-0.5 0,-1 0,-0.5 0,-1 0,-0.5 0,-1 0,-0.5 0,-1 0,-0.5 0,-1 Q 28,10 27.875,9.625 27.75,9.25 27.5,9 27.25,8.75 27,8.5 26.75,8.25 26.5,8 26.25,7.75 26,7.5 25.75,7.25 25.5,7 25.25,6.75 25,6.5 24.75,6.25 24.5,6 24.25,5.75 24,5.5 23.75,5.25 23.5,5 23.25,4.75 23,4.5 22.75,4.25 22.375,4.125 22,4 21.5,4 21,4 20.5,4 H 20 19.5 Q 19,4 18.5,4 18,4 17.5,4 H 17 16.5 Q 16,4 15.5,4 15,4 14.5,4 14,4 13.625,4.125 13.25,4.25 13,4.5 12.75,4.75 12.5,5 12.25,5.25 12,5.5 11.75,5.75 11.5,6 11.25,6.25 11,6.5 10.75,6.75 10.5,7 10.25,7.25 10,7.5 9.75,7.75 9.5,8 9.25,8.25 9,8.5 8.75,8.75 8.5,9 8.25,9.25 8.125,9.625 8,10 8,10.5 V 11 L 7.625,11.125 Q 7.25,11.25 7,11.5 6.75,11.75 6.5,12 6.25,12.25 6,12.5 5.75,12.75 5.5,13 5.25,13.25 5.125,13.625 5,14 5,14.5 q 0,0.5 0,1 0,0.5 0,1 0,0.5 0,1 0,0.5 0,1 0,0.5 0,1 0,0.5 0,1 0,0.5 0,1 Q 5,22 5.125,22.375 5.25,22.75 5.5,23 q 0.25,0.25 0.5,0.5 0.25,0.25 0.5,0.5 0.25,0.25 0.5,0.5 0.25,0.25 0.5,0.5 0.25,0.25 0.5,0.5 0.25,0.25 0.5,0.5 0.25,0.25 0.5,0.5 0.25,0.25 0.5,0.5 0.25,0.25 0.5,0.5 0.25,0.25 0.625,0.375 Q 11,28 11.5,28 q 0.5,0 1,0 0.5,0 1,0 0.5,0 1,0 0.5,0 1,0 0.5,0 1,0 0.5,0 1,0 0.5,0 1,0 0.5,0 1,0 0.5,0 1,0 M 8,11.125 V 11 10.625 10.25 10.5 q 0,0.25 0,0.5 v 0.25 -0.125"
       id="path10328"
       inkscape:connector-curvature="0" />
    <path
       style="fill:#767a84;fill-opacity:1"
       d="M 13,4.5 Q 13.25,4.25 13.625,4.125 14,4 14.5,4 q 0.5,0 1,0 0.5,0 1,0 H 17 V 4.5 Q 17,5 16.5,5 16,5 16,5.5 q 0,0.5 0,1 0,0.5 0,1 0,0.5 0,1 0,0.5 0.5,0.5 0.5,0 0.5,0.5 0,0.5 0.5,0.5 0.5,0 0.5,0.5 0,0.5 0.5,0.5 0.5,0 0.5,0.5 0,0.5 0.5,0.5 0.5,0 0.5,0.5 0,0.5 0,1 0,0.5 0,1 0,0.5 0,1 0,0.5 0.5,0.5 0.5,0 0.5,0.5 0,0.5 0.5,0.5 0.5,0 0.5,0.5 0,0.5 0.5,0.5 0.5,0 0.5,0.5 0,0.5 0.5,0.5 0.5,0 0.5,-0.5 0,-0.5 0,-1 0,-0.5 0,-1 0,-0.5 0,-1 0,-0.5 0,-1 0,-0.5 0,-1 0,-0.5 0,-1 0,-0.5 0,-1 0,-0.5 0,-1 0,-0.5 0,-1 Q 24,9 24,8.5 24,8 23.5,8 23,8 23,7.5 23,7 22.5,7 22,7 22,6.5 22,6 21.5,6 21,6 21,5.5 21,5 20.5,5 20,5 20,4.5 V 4 h 0.5 Q 21,4 21.5,4 22,4 22.375,4.125 22.75,4.25 23,4.5 23.25,4.75 23.5,5 23.75,5.25 24,5.5 24.25,5.75 24.5,6 24.75,6.25 25,6.5 25.25,6.75 25.5,7 25.75,7.25 26,7.5 26.25,7.75 26.5,8 26.75,8.25 27,8.5 27.25,8.75 27.5,9 27.75,9.25 27.875,9.625 28,10 28,10.5 q 0,0.5 0,1 0,0.5 0,1 0,0.5 0,1 0,0.5 0,1 0,0.5 0,1 0,0.5 0,1 0,0.5 0,1 0,0.5 -0.125,0.875 Q 27.75,18.75 27.5,19 27.25,19.25 27,19.5 26.75,19.75 26.5,20 26.25,20.25 26.125,20.625 L 26,21 26.09375,20.71875 26.1875,20.4375 26.125,20.625 q -0.0625,0.1875 -0.09375,0.40625 L 26,21.25 26.01563,21.140625 26.03126,21.03125 25.640635,21.140625 Q 25.25,21.25 25,21.5 24.75,21.75 24.5,22 24.25,22.25 24,22.5 23.75,22.75 23.5,23 23.25,23.25 23,23.5 22.75,23.75 22.375,23.875 22,24 21.5,24 q -0.5,0 -1,0 -0.5,0 -1,0 H 19 V 23.5 Q 19,23 19.5,23 20,23 20,22.5 q 0,-0.5 0,-1 0,-0.5 0,-1 0,-0.5 0,-1 Q 20,19 19.5,19 19,19 19,18.5 19,18 18.5,18 18,18 18,17.5 18,17 17.5,17 17,17 17,16.5 17,16 16.5,16 16,16 16,15.5 q 0,-0.5 0,-1 0,-0.5 0,-1 0,-0.5 0,-1 Q 16,12 15.5,12 15,12 15,11.5 15,11 14.5,11 14,11 14,10.5 14,10 13.5,10 13,10 13,9.5 13,9 12.5,9 12,9 12,9.5 q 0,0.5 0,1 0,0.5 0,1 0,0.5 0,1 0,0.5 0,1 0,0.5 0,1 0,0.5 0,1 0,0.5 0,1 0,0.5 0,1 0,0.5 0,1 0,0.5 0,1 0,0.5 0.5,0.5 0.5,0 0.5,0.5 0,0.5 0.5,0.5 0.5,0 0.5,0.5 0,0.5 0.5,0.5 0.5,0 0.5,0.5 0,0.5 0.5,0.5 0.5,0 0.5,0.5 V 24 H 15.5 Q 15,24 14.5,24 14,24 13.625,23.875 13.25,23.75 13,23.5 12.75,23.25 12.5,23 12.25,22.75 12,22.5 11.75,22.25 11.5,22 11.25,21.75 11,21.5 10.75,21.25 10.5,21 10.25,20.75 10,20.5 9.75,20.25 9.5,20 9.25,19.75 9,19.5 8.75,19.25 8.5,19 8.25,18.75 8.125,18.375 8,18 8,17.5 8,17 8,16.5 8,16 8,15.5 8,15 8,14.5 8,14 8,13.5 8,13 8,12.5 8,12 8,11.5 8,11 8,10.5 8,10 8.125,9.625 8.25,9.25 8.5,9 8.75,8.75 9,8.5 9.25,8.25 9.5,8 9.75,7.75 10,7.5 10.25,7.25 10.5,7 10.75,6.75 11,6.5 11.25,6.25 11.5,6 11.75,5.75 12,5.5 12.25,5.25 12.5,5 12.75,4.75 13,4.5"
       id="path10330"
       inkscape:connector-curvature="0" />
    <path
       style="fill:#8e9097;fill-opacity:1"
       d="M 17,4.5 V 4 h 0.5 q 0.5,0 1,0 0.5,0 1,0 H 20 V 4.5 Q 20,5 20.5,5 21,5 21,5.5 21,6 21.5,6 22,6 22,6.5 22,7 22.5,7 23,7 23,7.5 23,8 23.5,8 24,8 24,8.5 q 0,0.5 0,1 0,0.5 0,1 0,0.5 0,1 0,0.5 0,1 0,0.5 0,1 0,0.5 0,1 0,0.5 0,1 0,0.5 0,1 0,0.5 0,1 0,0.5 0,1 Q 24,19 23.5,19 23,19 23,18.5 23,18 22.5,18 22,18 22,17.5 22,17 21.5,17 21,17 21,16.5 21,16 20.5,16 20,16 20,15.5 q 0,-0.5 0,-1 0,-0.5 0,-1 0,-0.5 0,-1 Q 20,12 19.5,12 19,12 19,11.5 19,11 18.5,11 18,11 18,10.5 18,10 17.5,10 17,10 17,9.5 17,9 16.5,9 16,9 16,8.5 16,8 16,7.5 16,7 16,6.5 16,6 16,5.5 16,5 16.5,5 17,5 17,4.5"
       id="path10332"
       inkscape:connector-curvature="0" />
    <path
       style="fill:#8e9097;fill-opacity:1"
       d="M 12,9.5 Q 12,9 12.5,9 13,9 13,9.5 q 0,0.5 0.5,0.5 0.5,0 0.5,0.5 0,0.5 0.5,0.5 0.5,0 0.5,0.5 0,0.5 0.5,0.5 0.5,0 0.5,0.5 0,0.5 0,1 0,0.5 0,1 0,0.5 0,1 0,0.5 0.5,0.5 0.5,0 0.5,0.5 0,0.5 0.5,0.5 0.5,0 0.5,0.5 0,0.5 0.5,0.5 0.5,0 0.5,0.5 0,0.5 0.5,0.5 0.5,0 0.5,0.5 0,0.5 0,1 0,0.5 0,1 0,0.5 0,1 Q 20,23 19.5,23 19,23 19,23.5 V 24 h -0.5 q -0.5,0 -1,0 -0.5,0 -1,0 H 16 V 23.5 Q 16,23 15.5,23 15,23 15,22.5 15,22 14.5,22 14,22 14,21.5 14,21 13.5,21 13,21 13,20.5 13,20 12.5,20 12,20 12,19.5 q 0,-0.5 0,-1 0,-0.5 0,-1 0,-0.5 0,-1 0,-0.5 0,-1 0,-0.5 0,-1 0,-0.5 0,-1 0,-0.5 0,-1 0,-0.5 0,-1 0,-0.5 0,-1 0,-0.5 0,-1"
       id="path10334"
       inkscape:connector-curvature="0" />
    <path
       style="fill:#3a3a50;fill-opacity:1"
       d="M 7,11.5 Q 7.25,11.25 7.625,11.125 L 8,11 v 0.5 q 0,0.5 0,1 0,0.5 0,1 0,0.5 0,1 0,0.5 0,1 0,0.5 0,1 0,0.5 0,1 Q 8,18 8.125,18.375 8.25,18.75 8.5,19 q 0.25,0.25 0.5,0.5 0.25,0.25 0.5,0.5 0.25,0.25 0.5,0.5 0.25,0.25 0.5,0.5 0.25,0.25 0.5,0.5 0.25,0.25 0.5,0.5 0.25,0.25 0.5,0.5 0.25,0.25 0.5,0.5 0.25,0.25 0.5,0.5 0.25,0.25 0.625,0.375 Q 14,24 14.5,24 q 0.5,0 1,0 h 0.5 0.5 q 0.5,0 1,0 0.5,0 1,0 h 0.5 0.5 q 0.5,0 1,0 0.5,0 1,0 0.5,0 0.875,-0.125 Q 22.75,23.75 23,23.5 23.25,23.25 23.5,23 23.75,22.75 24,22.5 24.25,22.25 24.5,22 24.75,21.75 25,21.5 25.25,21.25 25.640625,21.140625 L 26.03125,21.03125 26.046875,20.921875 26.0625,20.8125 26.03125,21.03125 Q 26,21.25 26,21.5 V 21.75 21.375 21 21.5 q 0,0.5 0,1 0,0.5 -0.125,0.875 Q 25.75,23.75 25.5,24 25.25,24.25 25,24.5 24.75,24.75 24.5,25 24.25,25.25 24,25.5 23.75,25.75 23.5,26 23.25,26.25 23,26.5 22.75,26.75 22.5,27 22.25,27.25 22,27.5 21.75,27.75 21.375,27.875 21,28 20.5,28 q -0.5,0 -1,0 -0.5,0 -1,0 -0.5,0 -1,0 -0.5,0 -1,0 -0.5,0 -1,0 -0.5,0 -1,0 -0.5,0 -1,0 -0.5,0 -1,0 -0.5,0 -1,0 Q 11,28 10.625,27.875 10.25,27.75 10,27.5 9.75,27.25 9.5,27 9.25,26.75 9,26.5 8.75,26.25 8.5,26 8.25,25.75 8,25.5 7.75,25.25 7.5,25 7.25,24.75 7,24.5 6.75,24.25 6.5,24 6.25,23.75 6,23.5 5.75,23.25 5.5,23 5.25,22.75 5.125,22.375 5,22 5,21.5 5,21 5,20.5 5,20 5,19.5 5,19 5,18.5 5,18 5,17.5 5,17 5,16.5 5,16 5,15.5 5,15 5,14.5 5,14 5.125,13.625 5.25,13.25 5.5,13 5.75,12.75 6,12.5 6.25,12.25 6.5,12 6.75,11.75 7,11.5 M 8,11.375 V 11 10.875 10.75 11 q 0,0.25 0,0.5 v 0.25 -0.375"
       id="path10336"
       inkscape:connector-curvature="0" />
  </g>
</svg>
